flaticon/seo-and-analytics/worldwide-12.svg

<svg xmlns="http://www.w3.org/2000/svg" width="32" height="32" viewBox="0 0 24 24">
    <path d="M 23.9375 19.925781 C 23.386719 19.023438 22.734375 18.273438 22.019531 17.6875 C 23.03125 15.894531 23.574219 13.863281 23.574219 11.796875 C 23.574219 5.433594 18.515625 0.238281 12.207031 0.0195312 L 12.191406 0.0117188 L 11.949219 0.0117188 C 11.910156 0.0117188 11.828125 0.0117188 11.785156 0.0117188 C 11.746094 0.0117188 11.664062 0.0117188 11.625 0.0117188 L 11.378906 0.0117188 L 11.367188 0.0195312 C 5.058594 0.238281 0 5.433594 0 11.796875 C 0 14.769531 1.105469 17.484375 2.921875 19.5625 C 2.933594 19.589844 2.949219 19.617188 2.96875 19.640625 C 3.003906 19.699219 3.054688 19.738281 3.105469 19.761719 C 5.171875 22.015625 8.101562 23.460938 11.367188 23.574219 L 11.378906 23.582031 L 11.625 23.582031 C 11.664062 23.582031 11.746094 23.582031 11.785156 23.582031 C 12.941406 23.582031 14.132812 23.402344 15.257812 23.070312 C 16.199219 23.671875 17.226562 23.988281 18.289062 23.988281 C 20.402344 23.988281 22.394531 22.730469 23.9375 20.371094 C 24.019531 20.210938 24.019531 20.046875 23.9375 19.925781 Z M 19.914062 18.707031 C 19.914062 19.601562 19.183594 20.332031 18.289062 20.332031 C 17.394531 20.332031 16.664062 19.601562 16.664062 18.707031 C 16.664062 17.933594 17.210938 17.28125 17.9375 17.121094 C 18.160156 17.101562 18.386719 17.097656 18.609375 17.113281 C 19.351562 17.261719 19.914062 17.921875 19.914062 18.707031 Z M 7.753906 17.65625 C 8.925781 17.3125 10.140625 17.121094 11.378906 17.085938 L 11.378906 22.527344 C 9.8125 21.160156 8.585938 19.5 7.753906 17.65625 Z M 11.378906 16.273438 C 10.035156 16.308594 8.714844 16.527344 7.445312 16.914062 C 6.875 15.425781 6.554688 13.839844 6.507812 12.203125 L 11.378906 12.203125 Z M 0.820312 12.203125 L 5.695312 12.203125 C 5.742188 13.925781 6.078125 15.601562 6.675781 17.171875 C 5.527344 17.589844 4.421875 18.148438 3.378906 18.84375 C 1.859375 17.035156 0.914062 14.726562 0.820312 12.203125 Z M 3.585938 4.511719 C 4.601562 5.167969 5.683594 5.695312 6.808594 6.085938 C 6.128906 7.75 5.746094 9.542969 5.695312 11.390625 L 0.820312 11.390625 C 0.917969 8.753906 1.945312 6.355469 3.585938 4.511719 Z M 11.378906 6.101562 C 10.207031 6.066406 9.046875 5.890625 7.925781 5.570312 C 8.75 3.875 9.914062 2.339844 11.378906 1.066406 Z M 13.25 0.921875 C 15.621094 1.238281 17.753906 2.3125 19.394531 3.890625 C 18.460938 4.488281 17.464844 4.96875 16.429688 5.328125 C 15.652344 3.695312 14.582031 2.199219 13.25 0.921875 Z M 15.648438 5.570312 C 14.527344 5.890625 13.363281 6.066406 12.191406 6.101562 L 12.191406 1.066406 C 13.660156 2.339844 14.824219 3.875 15.648438 5.570312 Z M 7.144531 5.328125 C 6.109375 4.96875 5.113281 4.488281 4.179688 3.890625 C 5.820312 2.3125 7.953125 1.238281 10.324219 0.921875 C 8.992188 2.199219 7.921875 3.695312 7.144531 5.328125 Z M 6.507812 11.390625 C 6.558594 9.625 6.925781 7.917969 7.585938 6.332031 C 8.808594 6.683594 10.082031 6.878906 11.378906 6.914062 L 11.378906 11.390625 Z M 12.191406 6.914062 C 13.492188 6.878906 14.765625 6.683594 15.988281 6.328125 C 16.644531 7.914062 17.015625 9.625 17.066406 11.390625 L 12.191406 11.390625 Z M 17.878906 11.390625 C 17.828125 9.542969 17.445312 7.75 16.761719 6.082031 C 17.890625 5.6875 18.96875 5.160156 19.976562 4.496094 C 21.621094 6.34375 22.65625 8.746094 22.753906 11.390625 Z M 3.929688 19.453125 C 4.890625 18.808594 5.914062 18.292969 6.980469 17.910156 C 7.765625 19.683594 8.894531 21.300781 10.324219 22.671875 C 7.828125 22.339844 5.601562 21.167969 3.929688 19.453125 Z M 12.191406 22.761719 L 12.191406 12.203125 L 22.753906 12.203125 C 22.6875 13.96875 22.207031 15.6875 21.339844 17.199219 C 20.386719 16.59375 19.347656 16.265625 18.289062 16.265625 C 16.136719 16.265625 14.0625 17.609375 12.679688 19.925781 C 12.660156 19.964844 12.648438 20 12.636719 20.039062 L 12.558594 20.167969 L 12.679688 20.371094 C 13.203125 21.195312 13.789062 21.890625 14.425781 22.445312 C 13.703125 22.617188 12.949219 22.730469 12.191406 22.761719 Z M 18.25 23.21875 C 17.464844 23.199219 16.683594 22.976562 15.949219 22.554688 L 15.527344 22.28125 C 14.792969 21.796875 14.101562 21.0625 13.492188 20.167969 C 14.234375 19.03125 15.109375 18.175781 16.085938 17.664062 C 15.9375 17.980469 15.851562 18.332031 15.851562 18.707031 C 15.851562 20.046875 16.949219 21.144531 18.289062 21.144531 C 19.628906 21.144531 20.726562 20.046875 20.726562 18.707031 C 20.726562 18.335938 20.644531 17.988281 20.496094 17.671875 C 20.742188 17.804688 20.980469 17.960938 21.214844 18.136719 L 21.300781 18.195312 C 21.949219 18.699219 22.542969 19.363281 23.042969 20.167969 C 21.746094 22.160156 20.039062 23.21875 18.25 23.21875 Z M 18.25 23.21875"/>
</svg>

<svg xmlns="http://www.w3.org/2000/svg" width="32" height="32" viewBox="0 0 24 24">
    <path d="M23.938 19.926a8.816 8.816 0 0 0-1.918-2.238 12.002 12.002 0 0 0 1.554-5.891C23.574 5.434 18.516.238 12.207.02l-.016-.008h-.812l-.012.008C5.06.238 0 5.434 0 11.797c0 2.973 1.105 5.687 2.922 7.765a.32.32 0 0 0 .047.079.31.31 0 0 0 .136.12 11.738 11.738 0 0 0 8.262 3.813l.012.008h.406c1.156 0 2.348-.18 3.473-.512.941.602 1.969.918 3.031.918 2.113 0 4.106-1.258 5.648-3.617.083-.16.083-.324 0-.445zm-4.024-1.219c0 .895-.73 1.625-1.625 1.625-.894 0-1.625-.73-1.625-1.625 0-.773.547-1.426 1.273-1.586.223-.02.45-.023.672-.008a1.63 1.63 0 0 1 1.305 1.594zm-12.16-1.05a14.301 14.301 0 0 1 3.625-.571v5.441a14.23 14.23 0 0 1-3.625-4.87zm3.625-1.384a14.818 14.818 0 0 0-3.934.641 14.281 14.281 0 0 1-.937-4.71h4.87zM.82 12.203h4.875a15.11 15.11 0 0 0 .98 4.969 15.492 15.492 0 0 0-3.296 1.672 10.93 10.93 0 0 1-2.559-6.64zm2.766-7.691a15.01 15.01 0 0 0 3.223 1.574 15.114 15.114 0 0 0-1.114 5.305H.82a10.928 10.928 0 0 1 2.766-6.88zm7.793 1.59a14.106 14.106 0 0 1-3.453-.532 14.176 14.176 0 0 1 3.453-4.504zM13.25.922a10.948 10.948 0 0 1 6.145 2.969 14.036 14.036 0 0 1-2.965 1.437A15.084 15.084 0 0 0 13.25.922zm2.398 4.648c-1.12.32-2.285.496-3.457.532V1.066a14.132 14.132 0 0 1 3.457 4.504zm-8.503-.242A14.036 14.036 0 0 1 4.18 3.891 10.948 10.948 0 0 1 10.324.92a15.084 15.084 0 0 0-3.18 4.407zm-.637 6.063c.05-1.766.418-3.473 1.078-5.059a15.21 15.21 0 0 0 3.793.582v4.477zm5.683-4.477c1.301-.035 2.575-.23 3.797-.586a14.301 14.301 0 0 1 1.078 5.063h-4.875zm5.688 4.477a15.07 15.07 0 0 0-1.117-5.309 14.561 14.561 0 0 0 3.215-1.586 10.951 10.951 0 0 1 2.777 6.895zm-13.95 8.062A13.91 13.91 0 0 1 6.98 17.91a15.016 15.016 0 0 0 3.344 4.762 10.939 10.939 0 0 1-6.394-3.219zm8.262 3.309V12.203h10.563A10.86 10.86 0 0 1 21.34 17.2c-.953-.605-1.992-.933-3.05-.933-2.153 0-4.227 1.343-5.61 3.66a.671.671 0 0 0-.043.113l-.078.129.12.203c.524.824 1.11 1.52 1.747 2.074-.723.172-1.477.285-2.235.317zm6.059.457a4.844 4.844 0 0 1-2.3-.664l-.423-.274c-.734-.484-1.425-1.218-2.035-2.113.742-1.137 1.617-1.992 2.594-2.504a2.445 2.445 0 0 0-.234 1.043 2.446 2.446 0 0 0 2.437 2.438 2.446 2.446 0 0 0 2.438-2.438 2.42 2.42 0 0 0-.23-1.035c.245.133.483.289.718.465l.086.058a7.488 7.488 0 0 1 1.742 1.973c-1.297 1.992-3.004 3.05-4.793 3.05zm0 0"/>
</svg>
